icons/op-double-arrow-left-24.svg

<svg width="24" height="24" viewBox="0 0 24 24" fill="none" xmlns="http://www.w3.org/2000/svg">
<path d="M10.8471 11.1697L17.6629 5.31991C18.1944 4.89336 19.1011 4.89336 19.6014 5.31991C20.1329 5.77693 20.1329 6.53863 19.6014 6.99565L13.7235 11.9924L19.6014 16.9891C20.1329 17.4461 20.1329 18.1774 19.6014 18.6344C19.3512 18.8781 19.0073 19 18.6321 19C18.2882 19 17.9443 18.8781 17.6629 18.6344L10.8471 12.815C10.5657 12.6017 10.4406 12.2971 10.4406 11.9924C10.4406 11.6877 10.5657 11.383 10.8471 11.1697ZM4.40645 11.1697L11.2535 5.31991C11.7538 4.89336 12.6605 4.89336 13.1607 5.31991C13.7235 5.77693 13.7235 6.53863 13.1607 6.99565L7.31412 11.9924L13.1607 16.9891C13.7235 17.4461 13.7235 18.1774 13.1607 18.6344C12.9106 18.8781 12.5667 19 12.1915 19C11.8476 19 11.5037 18.8781 11.2535 18.6344L4.40645 12.815C4.15633 12.6017 4 12.2971 4 11.9924C4 11.6877 4.15633 11.383 4.40645 11.1697Z" fill="black"/>
</svg>

<svg xmlns="http://www.w3.org/2000/svg" width="24" height="24" viewBox="0 0 24 24"><path d="m10.847 11.17 6.816-5.85c.531-.427 1.438-.427 1.938 0a1.08 1.08 0 0 1 0 1.676l-5.878 4.996 5.878 4.997c.532.457.532 1.188 0 1.645-.25.244-.594.366-.969.366-.344 0-.688-.122-.969-.366l-6.816-5.819a1.013 1.013 0 0 1-.406-.823c0-.304.125-.609.406-.822Zm-6.441 0 6.848-5.85c.5-.427 1.407-.427 1.907 0 .562.457.562 1.219 0 1.676l-5.847 4.996 5.847 4.997c.562.457.562 1.188 0 1.645-.25.244-.594.366-.97.366a1.34 1.34 0 0 1-.937-.366l-6.848-5.819c-.25-.213-.406-.518-.406-.823 0-.304.156-.609.406-.822Z"/></svg>
